X: 8
T:Christy Barry's Set 1
R:Jig
B:irish music Vol 3 , June 1998
D:Kevin Crawford: d Flute Albu
M:6/8
L:1/8
Q:140
K:G
G3 BAG| A2 B d2 e| ged BAG| A3 BGE| D G2 B G2|
A2 B d2 e| ged BAG|1 AGF G2 D|2 AGF GBd :|
|: g3 gfg| abg d2 e| ged BAG| A3 BGE| D G2 B G2|
A2 B d2 e| ged BAG|1 AGF GBd |2 AGF G3 :|
